**kern	**kern	**kern	**kern
*MM60	*MM60	*MM60	*MM60
*k[b-e-]	*k[b-e-]	*k[b-e-]	*k[b-e-]
*M2/2	*M2/2	*M2/2	*M2/2
*tb32	*tb32	*tb32	*tb32
=1	=1	=1	=1
[1G	2r	1r	1r
.	2B-	.	.
=2	=2	=2	=2
2G]	4A	1r	1r
.	4B-	.	.
2F#	4c	.	.
.	8B-	.	.
.	8A	.	.
=3	=3	=3	=3
2G	4B-	1r	1r
.	8c	.	.
.	8d	.	.
8r	[2e-	.	.
8C	.	.	.
8D	.	.	.
8E-	.	.	.
=4	=4	=4	=4
2F	4e-]	1r	1r
.	8d	.	.
.	8c	.	.
8r	[2d	.	.
8BB-	.	.	.
8C	.	.	.
8D	.	.	.
=5	=5	=5	=5
2E-	4d]	1r	1r
.	8c	.	.
.	8B-	.	.
8r	[2c	.	.
8AA	.	.	.
8BB-	.	.	.
8C	.	.	.
=6	=6	=6	=6
2D	4c]	1r	1r
.	8B-	.	.
.	8A	.	.
2G	4B-	.	.
.	4c	.	.
=7	=7	=7	=7
4F	[2d	2r	1r
4E	.	.	.
[2D	8d]	2f	.
.	8c	.	.
.	8B-	.	.
.	8A	.	.
=8	=8	=8	=8
2D]	2G	4e	1r
.	.	4f	.
2C#	[2A	4g	.
.	.	8f	.
.	.	8e	.
=9	=9	=9	=9
8D	4A]	4f	1r
8C	.	.	.
8BB-	4r	8g	.
8AA	.	8a	.
2GG	4r	[2b-	.
.	4d	.	.
=10	=10	=10	=10
2C	[2e	4b-]	1r
.	.	8a	.
.	.	8g	.
2FF	4e]	[2a	.
.	8d	.	.
.	8c	.	.
=11	=11	=11	=11
2BB-	[2d	4a]	1r
.	.	8g	.
.	.	8f	.
2EE	4d]	[2g	.
.	8c#	.	.
.	8B	.	.
=12	=12	=12	=12
2AA	2c#	4g]	1r
.	.	8f	.
.	.	8e	.
2D	4d	4f	.
.	4c#	4f#	.
=13	=13	=13	=13
[2E-	4B-	[1g	2r
.	4A	.	.
8E-]	4G	.	2b-
8D	.	.	.
8C	4d	.	.
8BB-	.	.	.
=14	=14	=14	=14
2C	2e-	2g]	4a
.	.	.	4b-
2D	2d	2f#	4cc
.	.	.	8b-
.	.	.	8a
=15	=15	=15	=15
2GG	8r	2.g	4b-
.	8G	.	.
.	8A	.	8cc
.	8B-	.	8dd
2r	4c	.	[2ee-
.	4B-	4g	.
=16	=16	=16	=16
1r	4A	2.f	4ee-]
.	4F	.	8dd
.	.	.	8cc
.	4B-	.	[2dd
.	8c	4b-	.
.	8d	.	.
=17	=17	=17	=17
1r	2.e-	2.g	4dd]
.	.	.	8cc
.	.	.	8b-
.	.	.	[2cc
.	8d	8f#	.
.	8c	8e	.
=18	=18	=18	=18
1r	2d	2f#	4cc]
.	.	.	8b-
.	.	.	8a
.	4G	[2g	4b-
.	4A	.	4cc
=19	=19	=19	=19
2r	4B-	4g]	[1dd
.	4G	4b-	.
2F	2d	2a	.
=20	=20	=20	=20
4E	2g	2b-	2dd]
4F	.	.	.
4G	2e	[2a	2cc#
8F	.	.	.
8E	.	.	.
=21	=21	=21	=21
4F	1d	2a]	2.dd
8G	.	.	.
8A	.	.	.
[2B-	.	[2g	.
.	.	.	8cc
.	.	.	8b-
=22	=22	=22	=22
4B-]	2e	2g]	2.cc
8A	.	.	.
8G	.	.	.
[2A	2c	[2f	.
.	.	.	8b-
.	.	.	8a
=23	=23	=23	=23
4A]	2d	2f]	2.b-
8G	.	.	.
8F	.	.	.
[2G	4e	[2e	.
.	4d	.	8a
.	.	.	8g
=24	=24	=24	=24
4G]	2c#	2e]	[1a
8F	.	.	.
8E	.	.	.
4F	4d	2d	.
4F#	4c	.	.
=25	=25	=25	=25
2.G	2B-	2d	4a]
.	.	.	4g
.	2e-	[2g	[2b-
4F	.	.	.
=26	=26	=26	=26
8E-	1c	2g]	2b-]
8D	.	.	.
8E-	.	.	.
8C	.	.	.
8F	.	[2f	[2a
8E-	.	.	.
8F	.	.	.
8C	.	.	.
=27	=27	=27	=27
8D	1B-	2f]	2a]
8C	.	.	.
8D	.	.	.
8BB-	.	.	.
8E-	.	[2e-	[2g
8D	.	.	.
8E-	.	.	.
8BB-	.	.	.
=28	=28	=28	=28
8C	1A	2e-]	2g]
8BB-	.	.	.
8C	.	.	.
8AA	.	.	.
8D	.	2d	2f#
8C	.	.	.
8D	.	.	.
8AA	.	.	.
=29	=29	=29	=29
4BB-	2G	2d	4.g
4GG	.	.	.
.	.	.	16a
.	.	.	16b-
2r	[2e-	2g	4cc
.	.	.	4b-
=30	=30	=30	=30
1r	4e-]	1f	2a
.	8d	.	.
.	8c	.	.
.	[2d	.	4b-
.	.	.	8cc
.	.	.	8dd
=31	=31	=31	=31
1r	4d]	2g	[1ee-
.	8c	.	.
.	8B-	.	.
.	4c	2aT	.
.	4F	.	.
=32	=32	=32	=32
1r	2.B-	2.b-	4ee-]
.	.	.	8dd
.	.	.	8cc
.	.	.	4dd
.	4A	4cc	4ff
=33	=33	=33	=33
1r	4G	2dd	2.bb-
.	8A	.	.
.	8B-	.	.
.	[2c	[2ee-	.
.	.	.	8aa
.	.	.	8gg
=34	=34	=34	=34
1r	4c]	2ee-]	2.aa
.	4F	.	.
.	2B-	[2dd	.
.	.	.	8gg
.	.	.	8ff
=35	=35	=35	=35
1r	4E-	2dd]	2.gg
.	8F	.	.
.	8G	.	.
.	[2A	[2cc	.
.	.	.	8ff
.	.	.	8ee-
=36	=36	=36	=36
2r	4A]	4cc]	2.ff
.	4D	8b-	.
.	.	8a	.
2D	[2B-	4b-	.
.	.	4f	8ee-
.	.	.	8dd
=37	=37	=37	=37
4C	2B-]	2g	2ee-
4D	.	.	.
4E-	2A	[2f	2ccT
8D	.	.	.
8C	.	.	.
=38	=38	=38	=38
4D	2B-	2f]	2b-
8E-	.	.	.
8F	.	.	.
[2G	2d	2r	4b-
.	.	.	8cc
.	.	.	8dd
=39	=39	=39	=39
4G]	2e-	1a	2cc
8F	.	.	.
8E-	.	.	.
[2F	[2d	.	8dd
.	.	.	8cc
.	.	.	8dd
.	.	.	8a
=40	=40	=40	=40
4F]	2d]	1g	2b-
8E-	.	.	.
8D	.	.	.
[2E-	[2c	.	8cc
.	.	.	8b-
.	.	.	8cc
.	.	.	8g
=41	=41	=41	=41
4E-]	2c]	2.f	2a
8D	.	.	.
8C	.	.	.
4D	4B-	.	[2b-
4E-	4e-	4g	.
=42	=42	=42	=42
2.F	4d	1f	2b-]
.	8c	.	.
.	8B-	.	.
.	2c	.	2a
4E-	.	.	.
=43	=43	=43	=43
4D	2d	4f	2b
8G	.	2g	.
8F	.	.	.
4E-	2e-	.	[2cc
4C	.	8f	.
.	.	8g	.
=44	=44	=44	=44
4F	1d	2a-	2cc]
4D	.	.	.
4G	.	[2g	2b
4F	.	.	.
=45	=45	=45	=45
4E-	2.c	4g]	2cc
8D	.	8f	.
8E-	.	8g	.
[2C	.	2e-	4a
.	4c	.	4g
=46	=46	=46	=46
4C]	2A	1d	2f#
8D	.	.	.
8C	.	.	.
4BB-	2B-	.	[2g
4GG	.	.	.
=47	=47	=47	=47
4C	1A	2e-	2g]
4AA	.	.	.
4D	.	[2d	2f#
4C	.	.	.
=48	=48	=48	=48
4BB-	2G	2.d]	2g
8AA	.	.	.
8BB-	.	.	.
4GG	2r	.	2b-
[4G	.	8e	.
.	.	8d	.
=49	=49	=49	=49
4G]	1r	2c#	2.a
8F	.	.	.
8E	.	.	.
2F	.	[2d	.
.	.	.	8g
.	.	.	8f
=50	=50	=50	=50
2E	1r	4d]	1g
.	.	8c#	.
.	.	8B	.
2A	.	2c#T	.
=51	=51	=51	=51
[1D	2r	2d	4f
.	.	.	4g
.	2F	2r	4a
.	.	.	8b-
.	.	.	8a
=52	=52	=52	=52
2D]	4E-	1r	4g
.	4F	.	8a
.	.	.	8b-
2C#	4G	.	2eT
.	8F	.	.
.	8E-	.	.
=53	=53	=53	=53
2D	4F	1r	2.d
.	8G	.	.
.	8A	.	.
2GG	[2B-	.	.
.	.	.	8e
.	.	.	8f
=54	=54	=54	=54
2C	4B-]	1r	2e
.	8A	.	.
.	8G	.	.
2FF	[2A	.	8f
.	.	.	8e
.	.	.	8d
.	.	.	8c#
=55	=55	=55	=55
2BB-	4A]	1r	2.d
.	8G	.	.
.	8F	.	.
2EE	[2G	.	.
.	.	.	8c#
.	.	.	8B
=56	=56	=56	=56
2AA	4G]	1r	2c#
.	8F	.	.
.	8E	.	.
4D	4F	.	[2d
4C	4F#	.	.
=57	=57	=57	=57
4BB-	2.G	2r	2d]
4AA	.	.	.
2GG	.	2B-	[2g
.	4D	.	.
=58	=58	=58	=58
2C	2E-	4A	2g]
.	.	4B-	.
2D	2D	4c	2f#
.	.	8B-	.
.	.	8A	.
=59	=59	=59	=59
2GG	2D	4B-	2g
.	.	8c	.
.	.	8d	.
4r	4r	[2e-	2r
4GG	4B-	.	.
=60	=60	=60	=60
2AA	4c	4e-]	1r
.	2F	8d	.
.	.	8c	.
2BB-	.	[2d	.
.	[4B-	.	.
=61	=61	=61	=61
2.FF	4B-]	4d]	1r
.	8A	8c	.
.	8G	8B-	.
.	[2A	[2c	.
4FF#	.	.	.
=62	=62	=62	=62
1GG	4A]	4c]	1r
.	8G	8B-	.
.	8F#	8A	.
.	[2G	4B-	.
.	.	8c	.
.	.	8B-	.
=63	=63	=63	=63
[1D	4G]	2.A	2r
.	8F	.	.
.	8E	.	.
.	2F	.	2f
.	.	4A	.
=64	=64	=64	=64
2D]	4G	2B-	4e
.	4F	.	4f
2C#	2E	2A	4g
.	.	.	8f
.	.	.	8e
=65	=65	=65	=65
2D	2D	8A	4f
.	.	8d	.
.	.	8e	8g
.	.	8f	8a
2r	8r	4g	[2b-
.	8G	.	.
.	8A	4f	.
.	8B-	.	.
=66	=66	=66	=66
1r	2c	[2e	4b-]
.	.	.	8a
.	.	.	8g
.	2r	4e]	[2a
.	.	8d	.
.	.	8c#	.
=67	=67	=67	=67
1r	2B-	1d	4a]
.	.	.	8g
.	.	.	8f
.	8r	.	[2g
.	8E	.	.
.	8F	.	.
.	8G	.	.
=68	=68	=68	=68
1r	2A	2c#	4g]
.	.	.	8f
.	.	.	8e
.	2D	4d	4f
.	.	4c	4f#
=69	=69	=69	=69
2r	4E-	4B-	2.g
.	4C	4e-	.
2BB-	[2G	2d	.
.	.	.	8a
.	.	.	8b-
=70	=70	=70	=70
4AA	2G]	4c	2cc
4BB-	.	8d	.
.	.	8e-	.
4C	2F#	[2d	2a
8BB-	.	.	.
8AA	.	.	.
=71	=71	=71	=71
4BB-	1G	2d]	2.g
8C	.	.	.
8D	.	.	.
[2E-	.	2c	.
.	.	.	8a
.	.	.	8b-
=72	=72	=72	=72
4E-]	2c	1f	2a
8D	.	.	.
8C	.	.	.
[2D	[2B-	.	4b-
.	.	.	4a
=73	=73	=73	=73
4D]	4B-]	1e-	2g
8C	4d	.	.
8BB-	.	.	.
[2C	4c	.	4a
.	4B-	.	4g
=74	=74	=74	=74
4C]	2.A	2.d	2f#
8BB-	.	.	.
8AA	.	.	.
4BB-	.	.	[2g
4C	4c	4e-	.
=75	=75	=75	=75
1D	2B-	2d	2g]
.	2A	2c	2f#T 2d
=76	=76	=76	=76
1GG	1G	1B-	1g 1d
==	==	==	==
*-	*-	*-	*-
